dist/img/lamp.svg

<svg width="16" height="22" fill="none" xmlns="http://www.w3.org/2000/svg"><circle cx="8" cy="8" r="8" fill="#FF0"/><path d="M5.5 15.5V20l1 1.5h3l1-1.5v-4.5m0-5V7l2-.5-2-1-2.5 1m0 4v-4m0 0l-2.5-1-2 1 2 .5v3.5" stroke="#fff"/></svg>

<svg width="16" height="22" viewBox="0 0 16 22" fill="none" xmlns="http://www.w3.org/2000/svg">
<circle cx="8" cy="8" r="8" fill="#FFFF00"/>
<path d="M5.5 15.5V20L6.5 21.5H9.5L10.5 20V15.5M10.5 10.5V7L12.5 6.5L10.5 5.5L8 6.5M8 10.5V6.5M8 6.5L5.5 5.5L3.5 6.5L5.5 7V10.5" stroke="white"/>
</svg>
